X:201
T:Lord Gordon
Z: id:dc-reel-184
M:C
L:1/8
K:D Major
dB|ADFD A,DFB|ADFD FAdc|BEE2 dEE2|BEE2 BAFA|!
dcdf ecdB|AFDF A2Bc|cBBA BFAF|EFGA Bc:|!
de|f2df afdf|afdf a2gf|efga bgec|dcBA FABc|!
dff2 ecdB|AFDF A2Bc|cBBA BFAF|EFGA Bc:|!
de|faa2 fdad|faa2 fdad|gbb2 gebe|gbb2 gebe|!
fgfe dcdB|BAGB ABdf|afec dBAF|EFGA Bc:|!
dB|Addc def2|Addc def2|egg2 agfg|eggf g3e|!
fgfe dcdB|BAGB ABdf|afec dBAF|EFGA Bc:|!
de|faa^g afde|faa^g a2=gf|gbef gbef|gbeg bgef|!
g2bg f2af|fedB ABdf|afec dBAF|EFGA Bc:|!

